src/images/sidebar/explore/icons/sports_outline.svg

<svg xmlns="http://www.w3.org/2000/svg" width="24" height="24"><path style="stroke:none;fill-rule:nonzero;fill:#fff;fill-opacity:1" d="M17 3v7.512l-.012.457c-.047 2.133-1.328 3.972-3.25 4.703h-.02l-.058.02-.66.257V20h1v1h1-5v-1h1v-4.05l-.66-.24-.078-.03h-.012c-1.922-.73-3.2-2.57-3.25-4.7V3zm1-1H6v3H4v6h2.012c.058 2.531 1.617 4.781 3.957 5.64.011 0 .02 0 .031.008V19H9v1H8v2h8v-2h-1v-1h-1v-2.352c.012 0 .02 0 .031-.007 2.328-.86 3.899-3.102 3.957-5.641H20V5h-2zm0 8V6h1v4zM5 10V6h1v4zm0 0"/></svg>

<svg xmlns="http://www.w3.org/2000/svg" viewBox="0 0 24 24" preserveAspectRatio="xMidYMid meet" focusable="false">
    <g fill="white">
        <path d="M17 3V5V6V10V10.51L16.99 10.97C16.94 13.1 15.66 14.94 13.74 15.67H13.72L13.66 15.69L13 15.95V16.65V19V20H14V21H15H10V20H11V19V16.65V15.95L10.34 15.71L10.26 15.68H10.25C8.33 14.95 7.05 13.11 7 10.98V10.51V10V6V5V3H17ZM18 2H6V5H4V6V10V11H6.01C6.07 13.53 7.63 15.78 9.97 16.64C9.98 16.64 9.99 16.64 10 16.65V19H9V20H8V22H16V20H15V19H14V16.65C14.01 16.65 14.02 16.65 14.03 16.64C16.36 15.78 17.93 13.54 17.99 11H20V10V6V5H18V2ZM18 10V6H19V10H18ZM5 10V6H6V10H5Z"></path>
    </g>
</svg>
